Newaita/actions/symbolic/view-coverflow-symbolic.svg

<svg height="16" viewBox="0 0 16 16" width="16" xmlns="http://www.w3.org/2000/svg"><g fill="#424242"><path d="m5.027344 4.09375h5.820312c.585938 0 1.058594.472656 1.058594 1.058594v5.820312c0 .585938-.472656 1.058594-1.058594 1.058594h-5.820312c-.585938 0-1.058594-.472656-1.058594-1.058594v-5.820312c0-.585938.472656-1.058594 1.058594-1.058594zm0 0"/><path d="m12.570312 3.761719c.546876 0 .992188.445312.992188.992187v6.617188c0 .550781-.445312.992187-.992188.992187zm0 0"/><path d="m14.222656 3.101562c.550782 0 .992188.441407.992188.992188v7.9375c0 .550781-.441406.992188-.992188.992188zm0 0"/><path d="m3.308594 3.761719c-.550782 0-.992188.445312-.992188.992187v6.617188c0 .550781.441406.992187.992188.992187zm0 0"/><path d="m1.652344 3.101562c-.546875 0-.992188.441407-.992188.992188v7.9375c0 .550781.445313.992188.992188.992188zm0 0"/></g></svg>

<?xml version="1.0" encoding="UTF-8"?>
<svg xmlns="http://www.w3.org/2000/svg" xmlns:xlink="http://www.w3.org/1999/xlink" width="16px" height="16px" viewBox="0 0 16 16" version="1.1">
<g id="surface1">
<path style=" stroke:none;fill-rule:nonzero;fill:rgb(25.882354%,25.882354%,25.882354%);fill-opacity:1;" d="M 5.027344 4.09375 L 10.847656 4.09375 C 11.433594 4.09375 11.90625 4.566406 11.90625 5.152344 L 11.90625 10.972656 C 11.90625 11.558594 11.433594 12.03125 10.847656 12.03125 L 5.027344 12.03125 C 4.441406 12.03125 3.96875 11.558594 3.96875 10.972656 L 3.96875 5.152344 C 3.96875 4.566406 4.441406 4.09375 5.027344 4.09375 Z M 5.027344 4.09375 "/>
<path style=" stroke:none;fill-rule:nonzero;fill:rgb(25.882354%,25.882354%,25.882354%);fill-opacity:1;" d="M 12.570312 3.761719 C 13.117188 3.761719 13.5625 4.207031 13.5625 4.753906 L 13.5625 11.371094 C 13.5625 11.921875 13.117188 12.363281 12.570312 12.363281 Z M 12.570312 3.761719 "/>
<path style=" stroke:none;fill-rule:nonzero;fill:rgb(25.882354%,25.882354%,25.882354%);fill-opacity:1;" d="M 14.222656 3.101562 C 14.773438 3.101562 15.214844 3.542969 15.214844 4.09375 L 15.214844 12.03125 C 15.214844 12.582031 14.773438 13.023438 14.222656 13.023438 Z M 14.222656 3.101562 "/>
<path style=" stroke:none;fill-rule:nonzero;fill:rgb(25.882354%,25.882354%,25.882354%);fill-opacity:1;" d="M 3.308594 3.761719 C 2.757812 3.761719 2.316406 4.207031 2.316406 4.753906 L 2.316406 11.371094 C 2.316406 11.921875 2.757812 12.363281 3.308594 12.363281 Z M 3.308594 3.761719 "/>
<path style=" stroke:none;fill-rule:nonzero;fill:rgb(25.882354%,25.882354%,25.882354%);fill-opacity:1;" d="M 1.652344 3.101562 C 1.105469 3.101562 0.660156 3.542969 0.660156 4.09375 L 0.660156 12.03125 C 0.660156 12.582031 1.105469 13.023438 1.652344 13.023438 Z M 1.652344 3.101562 "/>
</g>
</svg>
